X:1998
T:Trejmanengel - stämma
R:Engelska
Z:Anton Teljebäck

C:Anton Teljebäck
M:4/4
L:1/8
K:G
|:G,4 B,4 | D4 G4 | G,4 B,4 | D2 =F2 F2 G2 | G,4 B,4 | D4 G4 | G4 D4 | G,4 G,4 :|
K:D
|:D4 F4 | E4 A4 | D4 F4 | E4 A4 | D4 F4 | E4 A4 | B4 A4 | G4 F4 |
|D4 F4 | E4 A4 | D4 F4 | E4 A4 | D4 F4 | E4 A4 | B4 A2G2 | F2E2 D4 |
(:musicend:)

(:music:)
